X: 40246
T: Tir Tairngiri
R: polka
M: 2/4
K: Amajor
G|GA FC|EF AB|cB BA|Bc e2|
GA FC|EF AB|cB BA|1 B3 c:|2 BA/B/ c2||
z(f f)c|ef BA|cB AE|FB B2|
z(f f)c|ef BA|cB AE|GA F2|
z(f f)c|ef BA|cB AE|FB B2|
af fe|fe cB|AF FE|F3||

